X: 5657
T: Buzzards Over Knocklayde
R: waltz
M: 3/4
K: Gmajor
|:D3 EGA|B3 AGF|E2c2E2|D2B2GE|
D3 EGA|B2 BcBG|A2 ABAG|EFG DEG|
D3 EGA|B3 AGF|E2c2E2|D2B2D2|
E2 EFGc|B2 BAFA|G2 GFGA|G6:|
|:d3 edc|B2g2B2|c2a2c2|B>d3 Bc|
d2 dedc|B2G2 AB|c3 BAG|E2 EFGE|
D2 DEGA|B2 BAGF|E2c2E2|D2B2D2|
E2 EFGc|B2 BAFA|G2 GFGA|G6:|

